X:4
T:T002B- College Hornpipe, Chappell's PMOT
Q:1/4=100
L:1/4
M:C
K:D
d/c/|dDDA/G/|F/A/dd/f/e/d/|eEEe/d/|c/e/aab/c'/|\
d'/c'/b/a/ b/a/g/f/|g/f/e/d/ d/c/B/A/|B/d/c/e/ c/f/e/a/|fdd||\
A/G/|F/A/d/A/ F/A/d/A/|BGGB/A/|^G/B/e/B/ G/B/e/B/|cAAg/f/|\
g(bb/)a/g/f/|g/f/e/d/ d/c/B/A/|B/e/c/e/ d/f/e/g/|fdd|]

